X:1
T:156 - Orando Sempre
T:Letra: Manuel Avelino de Souza (1886-1962)
T:Música: Charles Davis Tillman (1861-1943)
L:1/8
M:4/4
Q:1/4=90
K:G
V:1
B ^AB | "G"G3 B "C"dc GA | "G"B2 B2 zB BB | "D7"c3 B A^G AB | "G"G4 zG GG | "C"c3/2c/ c3 c GA | "G"B2 B2 zB BA | "D/A"A3 d "A7"^cB ce | "D"d4 zd dB | "C"e3d "G"d^c "(D7)"=cB | "D7"c3c cA Bc | "G"d3c "D7"c3B | "G"B3G GG "(C)"GG | "G"B3G "C"G3G | "G"G4 z |]
w: 1.~Ó Deus ben-di-to,a-ten-deo nos-so ro-go E dá-nos gra-çae vi-da de po-der; Na ten-ta-ção, quein-fla-ma co-mo fo-go, Só Tu ou-tor-gas for-ça de ven-cer. Nos-sao-ra-ção res-pon-de,ó Pai dea-mor, E, nes-te mun-do, dá-nos teu fa-vor! E, nes-te mun-do, dá-nos teu fa-vor!
w: 2.~Per-do-aas nos-sas cul-pas e pe-ca-dos, Que mui-tos são, pois dé-beis so-mos nós; De Ti, às ve-zes, va-mos a-fas-ta-dos, Re-bel-des, não ou-vin-do tu-a voz. A Ti cla-ma-mos, cer-tos do per-dão; Aar-re-pen-di-dos, mos-tra com-pai-xão! Aar-re-pen-di-dos, mos-tra com-pai-xão!
w: 3.~Que pri-vi-lé-gio san-toe do-ce te-mos De ter a paz de Cris-to,o Sal-va-dor; E,em seu ben-di-to No-me,a Deus lou-ve-mos, A-le-gres, for-tes, chei-os de fer-vor! Oh, que pra-zer glo-rio-so,a Deus o-rar, Pois é quei-mar in-cen-so so-breoal-tar! Pois é quei-mar in-cen-so so-breoal-tar!
w: 4.~O-rai, nos diz Je-sus, teu Fi-lhoa-ma-do; Sim, tu-doa Ti le-va-mos nao-ra-ção; A-qui es-ta-mos fir-mes ao man-da-do, Com fé fa-zen-doa nos-sa pe-ti-ção! Oh, vem, Se-nhor, a-go-ra trans-mi-tir Po-der e gra-ça, vem nos as-sis-tir! Po-der e gra-ça, vem nos as-sis-tir!
W: 
W:
W: 1. Ó Deus bendito, atende o nosso rogo
W: E dá-nos graça e vida de poder;
W: Na tentação, que inflama como fogo,
W: Só Tu outorgas força de vencer.
W: Nossa oração responde, ó Pai de amor,
W: E, neste mundo, dá-nos teu favor!
W: E, neste mundo, dá-nos teu favor!
W: 
W: 2. Perdoa as nossas culpas e pecados,
W: Que muitos são, pois débeis somos nós;
W: De Ti, às vezes, vamos afastados,
W: Rebeldes, não ouvindo tua voz.
W: A Ti clamamos, certos do perdão;
W: A arrependidos, mostra compaixão!
W: A arrependidos, mostra compaixão!
W: 
W:
W:
W: 3. Que privilégio santo e doce temos
W: De ter a paz de Cristo, o Salvador;
W: E, em seu bendito Nome, a Deus louvemos,
W: Alegres, fortes, cheios de fervor!
W: Oh, que prazer glorioso, a Deus orar,
W: Pois é queimar incenso sobre o altar!
W: Pois é queimar incenso sobre o altar!
W: 
W: 4. Orai, nos diz Jesus, teu Filho amado;
W: Sim, tudo a Ti levamos na oração;
W: Aqui estamos firmes ao mandado,
W: Com fé fazendo a nossa petição!
W: Oh, vem, Senhor, agora transmitir
W: Poder e graça, vem nos assistir!
W: Poder e graça, vem nos assistir!
W:         
W: 





